src/pos-icons/binoculars.svg

<svg height="24" viewBox="0 0 24 24" width="24" xmlns="http://www.w3.org/2000/svg"><path d="m11 6h2v7h-2zm-2 14a1 1 0 0 1 -1 1h-3a1 1 0 0 1 -1-1v-5l2-9h4v7a1 1 0 0 1 -1 1zm1-15h-3v-2h3zm5 15v-6a1 1 0 0 1 -1-1v-7h4l2 9v5a1 1 0 0 1 -1 1h-3a1 1 0 0 1 -1-1m-1-15v-2h3v2z"/></svg>

<?xml version="1.0" encoding="UTF-8"?><!DOCTYPE svg PUBLIC "-//W3C//DTD SVG 1.1//EN" "http://www.w3.org/Graphics/SVG/1.1/DTD/svg11.dtd"><svg xmlns="http://www.w3.org/2000/svg" xmlns:xlink="http://www.w3.org/1999/xlink" version="1.1" id="mdi-binoculars" width="24" height="24" viewBox="0 0 24 24"><path d="M11,6H13V13H11V6M9,20A1,1 0 0,1 8,21H5A1,1 0 0,1 4,20V15L6,6H10V13A1,1 0 0,1 9,14V20M10,5H7V3H10V5M15,20V14A1,1 0 0,1 14,13V6H18L20,15V20A1,1 0 0,1 19,21H16A1,1 0 0,1 15,20M14,5V3H17V5H14Z" /></svg>
